!!!COM: Music21
!!!OTL: mazurka_Kenmare--The
!!!OMV: mazurka_Kenmare--The
**kern
*clefG2
*k[f#]
*G:
*M3/4
=1
8gL
8aJ
=||
4b
8bL
8aJ
8gL
8eJ
=
8dL
8BJ
4d
8BL
8dJ
=
8eL
8cJ
4e
8cL
8eJ
=
8dL
8BJ
4d
8gL
8aJ
=
4b
8bL
8aJ
8gL
8eJ
=
8dL
8BJ
4d
8BL
8dJ
=
4e
4f#
4d
!!linebreak:original
=
2g
8gL
8aJ
=||
4b
8bL
8aJ
8gL
8eJ
=
8dL
8BJ
4d
8BL
8dJ
=
8eL
8cJ
4e
8cL
8eJ
=
8dL
8BJ
4d
8gL
8aJ
=
4b
8bL
8aJ
8gL
8eJ
=
8dL
8BJ
4d
8BL
8dJ
=
4e
4f#
4d
!!linebreak:original
=
2g
8gL
8aJ
=||
4b
4b
8ddL
8bJ
=
8ccL
8bJ
4cc
8aL
8f#J
=
4a
4a
8ddL
8ccJ
=
8bL
8aJ
4b
8gL
8aJ
=
4b
4b
8ddL
8bJ
=
8ccL
8bJ
4cc
8dL
8f#J
=
4a
8aL
8ccJ
8bL
8aJ
!!linebreak:original
=
2g
8gL
8aJ
=||
4b
4b
8ddL
8bJ
=
8ccL
8bJ
4cc
8aL
8f#J
=
4a
4a
8ddL
8ccJ
=
8bL
8aJ
4b
8gL
8aJ
=
4b
4b
8ddL
8bJ
=
8ccL
8bJ
4cc
8dL
8f#J
=
4a
8aL
8ccJ
8bL
8aJ
=
2.g
=||
*-
